src/svgs/slack.svg

<svg xmlns="http://www.w3.org/2000/svg" viewBox="0 0 24 24" width="512" height="512"><path d="M9.368 7.263H4.105a2.106 2.106 0 000 4.211h5.263a2.106 2.106 0 100-4.211zm2.106-3.158v2.106H9.368a2.106 2.106 0 112.106-2.106zM7.263 14.632V19.9a2.106 2.106 0 004.211 0v-5.268a2.106 2.106 0 10-4.211 0zm-3.158-2.106h2.106v2.106a2.106 2.106 0 11-2.106-2.106zm10.527 4.211H19.9a2.106 2.106 0 000-4.211h-5.268a2.106 2.106 0 100 4.211zM12.526 19.9v-2.111h2.106a2.106 2.106 0 11-2.106 2.111zm4.211-10.532V4.105a2.106 2.106 0 00-4.211 0v5.263a2.106 2.106 0 104.211 0zm3.163 2.106h-2.111V9.368a2.106 2.106 0 112.111 2.106z"/></svg>

<svg xmlns="http://www.w3.org/2000/svg" viewBox="0 0 24 24"><path d="M9.368,7.263H4.105a2.106,2.106,0,0,0,0,4.211H9.368a2.106,2.106,0,1,0,0-4.211Zm2.106-3.158V6.211H9.368a2.106,2.106,0,1,1,2.106-2.106ZM7.263,14.632V19.9a2.106,2.106,0,0,0,4.211,0V14.632a2.106,2.106,0,1,0-4.211,0ZM4.105,12.526H6.211v2.106a2.106,2.106,0,1,1-2.106-2.106Zm10.527,4.211H19.9a2.106,2.106,0,0,0,0-4.211H14.632a2.106,2.106,0,1,0,0,4.211ZM12.526,19.9V17.789h2.106A2.106,2.106,0,1,1,12.526,19.9ZM16.737,9.368V4.105a2.106,2.106,0,0,0-4.211,0V9.368a2.106,2.106,0,1,0,4.211,0ZM19.9,11.474H17.789V9.368A2.106,2.106,0,1,1,19.9,11.474Z"/></svg>
